X:144
T:Out of the Deep I Cry to Thee
%%stretchlast false
M:4/4
L:1/4
K:Bb clef=C1
"^V"[F,,A,CF] "^IV¹"[G,,G,B,E] "^V¹"[A,,F,CF] "^vi7¹"[B,,F,DG] | "^ii"[C,E,CG] "^iii"[D,F,A,F] "^ii"[C,E,CG] "^V"[F,,F,CA] | "^I"[B,,F,DB] "^V"[F,CA] "^ii"[C,E,CG] "^iii"[D,F,A,F] | "^V¹"[A,,F,CF] "^vi7¹"[B,,F,DG] "^ii"[C,E,CG] "^V"[F,,F,A,F] | [F,,A,CF] "^IV¹"[G,,G,B,E] "^V¹"[A,,F,CF] "^vi7¹"[B,,F,DG] | "^ii"[C,E,CG] "^iii"[D,F,A,F] "^ii"[C,E,CG] "^V"[F,,F,CA] | "^I"[B,,F,DB] "^V"[F,CA] "^ii"[C,E,CG] "^iii"[D,F,A,F] | "^V¹"[A,,F,CF] "^vi7¹"[B,,F,DG] "^ii"[C,E,CG] "^V"[F,,F,A,F] | "^iii"[D,A,DF] "^ii¹"[E,G,CG] "^I¹"[D,F,DB] "^VII°¹"[_D,E,EA] | "^iii"[D,A,DF] "^V/ii¹"[=B,,G,DG] "^ii"[C,G,CE] "^VI"[G,,G,=B,D] | "^VI+"[G,,G,=B,E] "^vii°"[A,,E,A,C] "^V"[F,A,C] "^ii¹"[E,G,CG] | "^III7"[D,_G,CA] "^vi"[G,,G,B,B] "^ii7"[C,E,B,G] "^iii"[D,F,A,F] | "^ii¹"[E,G,Cc] "^V"[F,CA] "^ii"[C,E,CG] "^iii"[D,F,A,F] | "^V¹"[A,,F,CF] "^vi7¹"[B,,F,DG] "^ii"[C,E,CG] "^V"[F,,F,A,F] |]
